X:60
T: Gorman's Reel
S: "Treoir" 32/2
Z: B.Black
M: 4/4
L: 1/8
R: reel
K: D
B |: ADED A2 dB |=cAGE EFGB |ADED A2 dB |=cAGE EDDB |
ADED A2 dB |=cAGE EFGB | ADED A2 dB | =cAGE ED D2 :|
Addc d2 AB |cdef gfec |Addc d2 AB | =cAGE ED D2 |
Addc d2 AB |cdef gfeg |fdec d2 ed | =cAGE ED D2 :|
